!!!OTL: AUF HOHER ALP
!!!ARE: Europa, Mitteleuropa, Deutschland
!!!SCT: B0644
!!!YEM: Copyright 1995, estate of Helmut Schaffrath.
**kern
*ICvox
*Ivox
*M3/4
*k[b-e-a-]
*E-:
{8g
8.g
16g
=1
2b-
4g
=2
4.cc
8b-
8a-
8g
=3
2b-}
{4g
=4
4.f
8a-
8g
8b-
=5
2a-}
{4f
=6
4.g
8b-
8.an
16cc
=7
8.b-
16dd
8.cc
16een
8.dd}
{16ff
=8
8ee-
8dd
8ee-
8cc
8an
8cc
=9
4.b-}
{8b-
8.b-
16b-
=10
4.dd
8b-
8.b-
16b-
=11
2ee-}
{4g
=12
4.cc
8b-
8a-
8g
=13
4b-
4a-
4f
=14
[2.e-
=15
4e-]
8r}
==
!!!AGN: Kinder - Lied, Natur, religioes
!!!ONB: ESAC (Essen Associative Code) Database: BOEHME
!!!AMT: simple triple
!!!AIN: vox
!!!EED: Helmut Schaffrath
!!!EEV: 1.0
*-
